X:1
T: Sands of Morar
T: 8x32S 3C (Barry Priddey/Diamond Jubilee & RSCDS Bk 45)
P: Pinkie House
C: William McGibbon Colln
C: from David Greenberg, Elke Baker
C: arr. Terry Traub 2004-02-10, rev. 2008-06-01
M: 6/8
R: strathspey
L: 1/8
K: G
G>A|"G"B2 B>d "C"c>BA>G|"G"d>B!beambr1!d<e d2 g>f|"C"e>d e/f/g "G"d<BA>G|"D"A6 G>A|"G"B2 B>d "C"c>BA>G|
"G"d>B!beambr1!d<e d2 g>f|"C"e>d (3efg "D"g/a/b a>g|"G"g3 a g2 || f>g|"D"a>ga>b a2 ga|"G"ba/g/ "Am"fg/e/ "B"^d2 ef|
"Em"g>fg>a "B"f3 e|"Em"e3 f e2 ef/g/|"G"d>BA>G Bd "C"e/f/g|"G"d>BA>G "C"E2 b>a|"Em"g>f "C"ef/g/ "D"A3 G|"G"G3 A G2 |]

